svgs/itau.svg

<svg xmlns="http://www.w3.org/2000/svg" width="192" height="192" fill="none" stroke="#000" stroke-width="12" xmlns:v="https://vecta.io/nano"><path d="M45 103v34m20.419-34v28.827c0 5.579 4.065 7.904 8.581 6.974m-14-26.037h11.29m16.148.231c13.417-4.18 21.563-2.322 21.563 10.68m0 0s-23-2.786-23 8.824c0 9.094 22.042 5.108 23 .928m0-9.752v9.752m0 5.573v-5.573M147 111.647v16.471m0 9.882v-9.882m-22.902-16.471s-.22 8.571 0 16.471c.458 16.47 22.902 9.411 22.902 0m-10.993-24.471L140.129 98" stroke-linecap="round"/><rect x="30" y="30" width="132" height="132" rx="24"/></svg>

<svg width="192" height="192" viewBox="0 0 192 192" fill="none" xmlns="http://www.w3.org/2000/svg">
<path d="M45 103V137" stroke="black" stroke-width="12" stroke-linecap="round"/>
<path d="M65.4194 103C65.4194 103 65.4194 126.247 65.4194 131.827C65.4194 137.406 69.4839 139.731 74 138.801M60 112.764H71.2903" stroke="black" stroke-width="12" stroke-linecap="round"/>
<path d="M87.4375 112.995C100.854 108.815 109 110.673 109 123.675M109 123.675C109 123.675 86 120.889 86 132.499C86 141.593 108.042 137.607 109 133.427M109 123.675C109 123.675 109 127.987 109 133.427M109 139C109 139 109 135.604 109 133.427" stroke="black" stroke-width="12" stroke-linecap="round"/>
<path d="M147 111.647C147 111.647 147 120.215 147 128.118M147 138C147 138 147 130.507 147 128.118M124.098 111.647C124.098 111.647 123.878 120.218 124.098 128.118C124.556 144.588 147 137.529 147 128.118M136.007 103.647L140.129 98" stroke="black" stroke-width="12" stroke-linecap="round"/>
<rect x="30" y="30" width="132" height="132" rx="24" stroke="black" stroke-width="12"/>
</svg>
